X: 1
T: G\aangl\aat av Gustaf Jernberg
C: Gustaf Jernberg
B: Svenska Folkl\aatar f\"or tv\aa fioler
Z: 2006 John Chambers <jc@trillian.mit.edu>
M: 2/4
L: 1/16
K: C
G2 \
| "C"c4 G3F | E2C2 E2GB | cBcd e2c2 | "G"[d6G6] de \
| "G"d2Bd g2dc | B2GB c2B2 | "D7"A2D2 D^FAF | "G"[G6B,6] AB |
| "C"c4 G3F | E2C2 E2GB | cBcd e2c2 | "Dm"[d6F6] df \
| "C"e2ce g2fe | "G7"d2Bd f2ed | "C"cBce "G7"gfdB | [c6E6] :|
|: eg \
| "C"[c'4e4] g3f | e2c2 c2de | "Dm"fefg "A7"agfe | "Dm"[d6F6] dc \
| "G7"B2G2 B2d2 | g4 f2B2 | "C"c3d "(G7)"cBcd |1,3 e2c2 ec :|2,4 "C"[c6E6] :|
